X:1
T:Title
%%score { ( 1 3 4 ) | 2 }
L:1/8
M:4/4
K:C
V:1 treble nm="Grand Piano"
V:3 treble 
V:4 treble 
V:2 bass 
V:1
 z4 z z/[Q:1/4=92] G/ A>G | z z/ C/ C>C z z/ G/ A>G | c6 z2 | B6 z2 | G6 z2 | e6 z2 | d6 z2 | %7
 B6 z2 |[M:3/4] c6 |[M:1/4] G2 |[M:4/4] [Ge]>[Ec] [EG]>[FA] [EG]3 [EG] | %11
 [Ge]>[Ec] [EG]>[FA] [EG]3 [EG] | G>F B>B B3 A | [FA]>[EG] [Ec]>[Ec] [Ec]3 [G,G] | %14
 [Ge]>[Ec] [EG]>[FA] [EG]3 [EG] | [Ge]>[Ec] [EG]>[G_B] A3 A | G>A B>c d>f A>[FB] | %17
[M:25/32] c-c/4-c-c/4- c3- c3/4 |] %18
V:2
 z8 | z z/ [C,G,]/ [C,G,]>[C,G,] [C,G,]2 z2 | z z/ [C,G,]/ [C,G,]>[C,G,] [C,G,]2 z2 | %3
 z z/ [G,D]/ [G,D]>[G,D] [G,D]2 z2 | z z/ [C,C]/ [C,C]>[C,C] [C,C]2 z2 | %5
 z z/ [C,C]/ [C,C]>[C,C] [E,B,]2 z2 | z z/ [F,A,]/ [F,A,]>[F,A,] [F,A,]2 z2 | %7
 z z/ [G,D]/ [G,D]>[G,D] [G,D]2 z2 |[M:3/4] z z/ [C,G,]/ [C,G,]>[C,G,] [C,G,]2 |[M:1/4] G,2 | %10
[M:4/4] [C,C]>[C,G,] [C,C]>[C,C] [C,C]3 [C,C] | [C,C]>[C,C] [C,C]>[C,C] [C,C]3 [C,C] | %12
 [G,B,D]>[G,B,D] [G,DF]>[G,DF] [G,DF]3 [G,B,F] | [C,C]>[C,C] [C,G,]>[C,G,] [C,G,]4 | %14
 [C,C]>[C,G,] [C,C]>[C,C] [C,C]3 [C,C] | [C,C]>[C,G,] [C,C]>[E,C][K:treble] [F,CF]3 [F,CF] | %16
 [G,B,F]>[G,CF] [G,DF]>[G,CE] [G,B,G]>[G,B,G] [G,DF]>[K:bass][G,,G,] | %17
[M:25/32] [C,G,]2 [C,A,]>[C,^G,] [C,=G,]2- [C,G,]/4 |] %18
V:3
 x8 | E6 z2 | z z/ E/ E>E E>E G>c | z z/ F/ F>F z z/ d/ F>A | z z/ E/ E>E z z/ G/ A>G | %5
 z z/ G/ G>G z z/ d/ c>B | z z/ F/ F>F z z/ c/ B>A | z z/ F/ F>F z z/ f/ A>B | %8
[M:3/4] z z/ E/ E>E E2 |[M:1/4] x2 |[M:4/4] x8 | x8 | x8 | x8 | x8 | x8 | x8 | %17
[M:25/32] E2 F>F E2- E/4 |] %18
V:4
 x8 | z4 C2 z2 | x8 | z4 F2 z2 | z4 E2 z2 | z4 ^G2 z2 | z4 F2 z2 | z4 F2 z2 |[M:3/4] x6 | %9
[M:1/4] x2 |[M:4/4] x8 | x8 | x8 | x8 | x8 | x8 | x8 |[M:25/32] x25/4 |] %18

